!!!!SEGMENT: pl-wn--sd-xvi-qu-273--083_gomolka-mikolaj--nie-milcz-ani-odkladaj-nie-cierp-boze-wieczny.krn
!!!cenid: 15xx:288
!!!COM: Gomółka, Mikołaj
!!!COM-rismid: pe30013343
!!!CDT: ~1535->1591/04/30
!!!CNT: Polish
!!!GTL: Melodiae na psalterz polski
!!!OTL: LXXXIII. Nie milcz ani odkładaj, nie cierp', Boże wieczny:
!!!PDT: 1580
!!!AGN: Sacred
!!!SMS-siglum: PL-Wn
!!!SMS-shelfmark: SD XVI.Qu.273
!!!SMS-shelfwork: 083 G
!!!NIFC-rismid:
!!!ONB-nifc: Melodiae na psalterz polski
!! Converted from MID
!! Ticks Per Quarter Note = 240
!! Track count: 5
**kern	**text	**kern	**text	**kern	**text	**kern	**text
*part4-	*part4	*part3	*part3	*part2	*part2	*part1	*part1
*staff4-	*staff4	*staff3	*staff3	*staff2	*staff2	*staff1	*staff1
*I"	*	*I"	*	*I"	*	*I"	*
*clefF4-	*	*clefC3	*	*clefC3	*	*clefC1	*
*k[b-]-	*	*k[b-]	*	*k[b-]	*	*k[b-]	*
*g:-	*	*g:	*	*g:	*	*g:	*
*M4/2	*	*M4/2	*	*M4/2	*	*M4/2	*
*met(C|)-	*	*met(C|)	*	*met(C|)	*	*met(C|)	*
=1-	=1	=1	=1	=1	=1	=1	=1
*>A	*	*	*	*	*	*	*
1GG	Nie	1d	Nie	1g	Nie	1b-	Nie
2.D	milcʒ/	2.d	milcʒ/	2.f	milcʒ/	2.a	milcʒ/
4A	á-	4c/	á-	4e	á-	4a	á-
=2-	=2	=2	=2	=2	=2	=2	=2
2.B-	-ni	4G	-ni	2d	-ni	2f	-ni
.	.	4F#X	.	.	.	.	.
.	.	4G	.	4B-	.	4g/	.
4A	.	4A	.	4c/	.	4a	.
4G	od-	2B-	od-	2.d	od	4b-	od-
4F	.	.	.	.	.	2a	-ťłá
2G	ťłá-	2A	-ťłá-	.	.	.	.
.	.	.	.	4e	ťłá-	4g/	.
=3-	=3	=3	=3	=3	=3	=3	=3
2.D/	-day:	2f	-day:	4f	-day:	2a	day:
.	.	.	.	4g	.	.	.
.	.	2f	nie	2a	nie	1dd	nie
4E	nie-	.	.	.	.	.	.
4F	.	2e	.	2a	.	.	.
4G	.	.	.	.	.	.	.
!	!'p z akcentem'	!	!'p z akcentem'	!	!'p z akcentem'	!	!'p z akcentem'
4A#X	-ćierp/	1.d	ćierp/_bo-	2.a	ćierp/	2cc	ćierp/
4G	.	.	.	.	.	.	.
=4-	=4	=4	=4	=4	=4	=4	=4
4F#X	bo-	.	.	.	.	2.dd	bo-
4E	.	.	.	4g	bo-	.	.
2F#	.	.	.	2a	.	.	.
.	.	.	.	.	.	4cc	.
2G	ʒ̇e	2d	-ʒ̇e	2g	ʒ̇e	2b-	ʒ̇e
2GG	wiecʒ-	2d	wiecʒ-	2g	wiecʒ-	2b-	wiecʒ-
=5-	=5	=5	=5	=5	=5	=5	=5
2D	-ny.	2c	-ny.	2f	-ny.	2a	-ny.
2A	O-	2e	O-	2e	O-	2a	O-
2A	-to	2d	-to	2c/	-to	2a	-to
!	!	!LO:N:vis=2.	!	!	!	!	!
4B-	prʒe	2d	prʒe	2d	prʒe-	2f	prʒe-
4A	.	.	.	.	.	.	.
=6-	=6	=6	=6	=6	=6	=6	=6
!!LO:PB:g=original
4G	ćiw-	4e	ćiw-	4B-	-ćiw-	4g	-ćiw
!	!	!LO:N:vis=2.	!	!	!	!	!
4F	-ťo	2f	-ťo	2A	-ťo	4a	.
2G	.	.	.	.	.	2b-	ťo
.	.	4e	.	4B-	.	.	.
4D	to-	4d	to-	2d	to-	2a	to-
4E	.	4c/	.	.	.	.	.
2G	-bie	2B-	-bie	2c/	-bie	1a	-bie
=7-	=7	=7	=7	=7	=7	=7	=7
2E-X	pow-	2B-	pow-	4f	pow	.	pow-
.	.	.	.	4e	.	.	.
2C	-ʃtáł	4c/	-ʃtáł	2d	ʃtáł	2b-	-ʃtáł
.	.	4B-	.	.	.	.	.
1D	lud_wʃʒe-	4A	lud	2e-X	lud	2g/	lud
.	.	4G	.	.	.	.	.
.	.	2A	wʃʒe-	2e-	wʃʒe	1g	wʃʒe
=8-	=8	=8	=8	=8	=8	=8	=8
!'ogonek po lewej stronie'	!	!	!	!	!	!	!
!LO:N:vis=00	!	!LO:N:vis=00	!	!	!	!	!
0GG/	tecʒ_ny.	0G/	-tecʒ_ny.	2.d	tecʒ-	.	.
.	.	.	.	.	.	2f	tecʒ-
.	.	.	.	4c/	.	.	.
!!LO:N:vis=00
.	.	.	.	1B#X/	-ny.	1g	-ny.
=	==	==	==	==	==	==	==
*-	*-	*-	*-	*-	*-	*-	*-
!!!RDF**kern: l = terminal long
!!!system-decoration: s1,s2,s3,s4
!!!ENC:Anna Matuszewska
!!!END:2020-02-23
!!!URL-scan: https://polona.pl/item/melodiae-na-psalterz-polski,Nzk3MTM4ODQ/195 Scan on Polona
!!!IIIF: https://polona.pl/iiif/item/Nzk3MTM4ODQ/manifest.json
